X: 449
P: Longways for as many as will
M: C|
L: 1/8
K: Dm
V: 1
defe d2A2 | F6 E2 | FGFE DEFG | AGAB A2A2 |\
defe d2A2 | F6 E2 | FGFE DEFG | A6 :|
|: c2 |\
fgag f2c2 | A6 d2 | bagf e2d2 | c6 A2 |\
agfe fed^c | d^cBA BAGF | GFED A2A,2 | D6 :|
V: 2 clef=bass middle=d
z2 |\
z4 z2A2 | defe d2A2 | d4 B4 | A6 :|
|: z2 |\
z4 z2c2 | fgag f2d2 | G4 A2B2 | A2ab agfe |\
f4 a4 | d4 G4 | g2ab a4 | d6 :|

